public/OpenAI_Logo logo.svg

<svg width="150" height="42" viewBox="0 0 150 42" fill="none" xmlns="http://www.w3.org/2000/svg">
<g clip-path="url(#clip0_144_538)">
<path d="M46.709 20.2168C46.709 26.8677 50.9802 31.505 56.8988 31.505C62.8175 31.505 67.0886 26.8677 67.0886 20.2168C67.0886 13.566 62.8175 8.92871 56.8988 8.92871C50.9802 8.92871 46.709 13.566 46.709 20.2168ZM63.1836 20.2168C63.1836 24.9762 60.5903 28.0575 56.8988 28.0575C53.2073 28.0575 50.6141 24.9762 50.6141 20.2168C50.6141 15.4575 53.2073 12.3762 56.8988 12.3762C60.5903 12.3762 63.1836 15.4575 63.1836 20.2168Z" fill="black"/>
<path d="M78.0842 31.5053C82.569 31.5053 85.1317 27.7222 85.1317 23.1765C85.1317 18.6307 82.569 14.8477 78.0842 14.8477C76.0096 14.8477 74.4842 15.6714 73.4774 16.8612V15.1527H69.8164V36.6612H73.4774V29.4917C74.4842 30.6816 76.0096 31.5053 78.0842 31.5053ZM73.3859 22.7188C73.3859 19.6985 75.0944 18.051 77.352 18.051C80.0062 18.051 81.4401 20.1256 81.4401 23.1765C81.4401 26.2273 80.0062 28.3019 77.352 28.3019C75.0944 28.3019 73.3859 26.6239 73.3859 23.6646V22.7188Z" fill="black"/>
<path d="M95.0414 31.5053C98.2448 31.5053 100.777 29.8273 101.906 27.0205L98.7634 25.8307C98.2753 27.4782 96.8414 28.3934 95.0414 28.3934C92.6922 28.3934 91.0448 26.7155 90.7702 23.9697H101.997V22.7494C101.997 18.3561 99.5261 14.8477 94.8888 14.8477C90.2515 14.8477 87.2617 18.4782 87.2617 23.1765C87.2617 28.1188 90.4651 31.5053 95.0414 31.5053ZM94.8583 17.929C97.177 17.929 98.2753 19.4544 98.3058 21.2239H90.9532C91.5024 19.0578 92.9668 17.929 94.8583 17.929Z" fill="black"/>
<path d="M104.742 31.1697H108.403V21.7731C108.403 19.4849 110.081 18.2646 111.729 18.2646C113.742 18.2646 114.535 19.6985 114.535 21.6816V31.1697H118.196V20.6138C118.196 17.1663 116.183 14.8477 112.827 14.8477C110.752 14.8477 109.318 15.7934 108.403 16.8612V15.1527H104.742V31.1697Z" fill="black"/>
<path d="M128.919 9.26416L120.621 31.1692H124.496L126.357 26.1659H135.814L137.706 31.1692H141.641L133.343 9.26416H128.919ZM131.055 13.5964L134.533 22.7489H127.638L131.055 13.5964Z" fill="black"/>
<path d="M147.927 9.32812H144.021V31.2332H147.927V9.32812Z" fill="black"/>
<path d="M37.7607 17.3096C38.6835 14.5396 38.3657 11.5053 36.8899 8.98583C34.6704 5.12143 30.2085 3.13329 25.8509 4.06888C23.9124 1.88499 21.1272 0.643037 18.2073 0.660833C13.753 0.650664 9.80091 3.51846 8.43058 7.7566C5.56913 8.34261 3.09922 10.1337 1.65388 12.6723C-0.582138 16.5265 -0.0723923 21.385 2.9149 24.6901C1.99201 27.46 2.30981 30.4943 3.78566 33.0138C6.00515 36.8782 10.467 38.8663 14.8246 37.9308C16.7619 40.1147 19.5484 41.3566 22.4683 41.3375C26.9251 41.349 30.8785 38.4786 32.2488 34.2367C35.1102 33.6507 37.5802 31.8596 39.0255 29.321C41.259 25.4668 40.748 20.6121 37.7619 17.307L37.7607 17.3096ZM22.4708 38.6795C20.6874 38.682 18.9598 38.0579 17.5907 36.9151C17.653 36.882 17.7611 36.8223 17.831 36.7791L25.931 32.1011C26.3454 31.8659 26.5996 31.4248 26.5971 30.9481V19.5291L30.0204 21.5057C30.0573 21.5235 30.0814 21.5591 30.0865 21.5998V31.0562C30.0814 35.2613 26.6759 38.6706 22.4708 38.6795ZM6.09286 31.6841C5.19922 30.1409 4.87761 28.332 5.18396 26.5765C5.24371 26.6121 5.34922 26.6769 5.42422 26.7202L13.5242 31.3981C13.9348 31.6384 14.4433 31.6384 14.8552 31.3981L24.7437 25.688V29.6413C24.7463 29.682 24.7272 29.7214 24.6954 29.7468L16.5077 34.4744C12.8607 36.5744 8.20303 35.3261 6.09413 31.6841H6.09286ZM3.96108 14.0032C4.85091 12.4574 6.25557 11.2752 7.92846 10.6613C7.92846 10.7312 7.92464 10.8545 7.92464 10.9409V20.2981C7.9221 20.7735 8.17634 21.2146 8.58947 21.4498L18.478 27.1587L15.0547 29.1354C15.0204 29.1583 14.9772 29.1621 14.9391 29.1456L6.75007 24.4142C3.11066 22.3066 1.86235 17.6502 3.95981 14.0045L3.96108 14.0032ZM32.0874 20.5485L22.1988 14.8384L25.6221 12.863C25.6564 12.8401 25.6996 12.8363 25.7378 12.8528L33.9268 17.5803C37.5725 19.6867 38.8221 24.3507 36.7157 27.9964C35.8246 29.5396 34.4213 30.7219 32.7496 31.3371V21.7002C32.7535 21.2248 32.5005 20.785 32.0886 20.5485H32.0874ZM35.4941 15.4206C35.4344 15.3837 35.3289 15.3202 35.2539 15.2769L27.1539 10.599C26.7433 10.3587 26.2348 10.3587 25.823 10.599L15.9344 16.3091V12.3557C15.9318 12.3151 15.9509 12.2757 15.9827 12.2502L24.1704 7.52651C27.8174 5.4227 32.4802 6.67482 34.5827 10.3231C35.4713 11.8638 35.7929 13.6676 35.4916 15.4206H35.4941ZM14.0734 22.4668L10.6488 20.4901C10.6119 20.4723 10.5878 20.4367 10.5827 20.396V10.9396C10.5852 6.72948 14.0009 3.31761 18.2111 3.32016C19.992 3.32016 21.7157 3.94558 23.0848 5.08456C23.0225 5.11761 22.9157 5.17736 22.8446 5.22058L14.7446 9.89855C14.3302 10.1337 14.0759 10.5735 14.0785 11.0502L14.0734 22.4642V22.4668ZM15.9331 18.4574L20.3378 15.9138L24.7424 18.4562V23.5422L20.3378 26.0846L15.9331 23.5422V18.4574Z" fill="black"/>
</g>
<defs>
<clipPath id="clip0_144_538">
<rect width="150" height="40.678" fill="white" transform="translate(0 0.661133)"/>
</clipPath>
</defs>
</svg>

<svg xmlns="http://www.w3.org/2000/svg" width="150" height="42" fill="none" viewBox="0 0 150 42"><g fill="#000" clip-path="url(#a)"><path d="M46.709 20.217c0 6.65 4.271 11.288 10.19 11.288s10.19-4.637 10.19-11.288-4.271-11.288-10.19-11.288-10.19 4.637-10.19 11.288m16.475 0c0 4.76-2.594 7.84-6.285 7.84s-6.285-3.08-6.285-7.84 2.593-7.84 6.285-7.84c3.691 0 6.285 3.08 6.285 7.84m14.9 11.288c4.485 0 7.048-3.783 7.048-8.328 0-4.546-2.563-8.33-7.048-8.33-2.074 0-3.6.824-4.607 2.014v-1.708h-3.66V36.66h3.66v-7.17c1.007 1.19 2.533 2.014 4.607 2.014m-4.698-8.786c0-3.02 1.708-4.668 3.966-4.668 2.654 0 4.088 2.075 4.088 5.126 0 3.05-1.434 5.125-4.088 5.125-2.258 0-3.966-1.678-3.966-4.637zm21.655 8.787c3.204 0 5.736-1.678 6.865-4.485l-3.143-1.19c-.488 1.648-1.922 2.563-3.722 2.563-2.349 0-3.996-1.678-4.27-4.423h11.226v-1.22c0-4.394-2.47-7.902-7.108-7.902s-7.627 3.63-7.627 8.329c0 4.942 3.203 8.328 7.78 8.328m-.183-13.576c2.319 0 3.417 1.525 3.448 3.295h-7.353c.55-2.166 2.014-3.295 3.905-3.295m9.883 13.241h3.661v-9.397c0-2.288 1.678-3.508 3.326-3.508 2.013 0 2.806 1.433 2.806 3.417v9.488h3.661V20.614c0-3.448-2.013-5.766-5.369-5.766-2.075 0-3.509.945-4.424 2.013v-1.708h-3.661zm24.177-21.906-8.298 21.905h3.875l1.861-5.003h9.457l1.892 5.003h3.935l-8.298-21.905zm2.136 4.332 3.478 9.153h-6.895zm16.872-4.268h-3.906v21.905h3.906zM37.76 17.31c.924-2.77.606-5.805-.87-8.324a10.25 10.25 0 0 0-11.04-4.917A10.14 10.14 0 0 0 18.208.66a10.25 10.25 0 0 0-9.776 7.096 10.14 10.14 0 0 0-6.777 4.915 10.25 10.25 0 0 0 1.26 12.018 10.13 10.13 0 0 0 .872 8.324 10.25 10.25 0 0 0 11.039 4.917 10.13 10.13 0 0 0 7.643 3.407 10.25 10.25 0 0 0 9.78-7.101 10.14 10.14 0 0 0 6.778-4.916 10.25 10.25 0 0 0-1.264-12.014zM22.47 38.68a7.6 7.6 0 0 1-4.88-1.765c.063-.033.171-.093.241-.136l8.1-4.678c.414-.235.669-.676.666-1.153V19.53l3.423 1.977a.12.12 0 0 1 .067.094v9.456a7.63 7.63 0 0 1-7.616 7.623M6.094 31.683a7.6 7.6 0 0 1-.909-5.108l.24.144 8.1 4.678c.41.24.92.24 1.331 0l9.889-5.71v3.953a.13.13 0 0 1-.049.106l-8.187 4.727a7.63 7.63 0 0 1-10.414-2.79zM3.96 14.004a7.6 7.6 0 0 1 3.967-3.343l-.003.28v9.357c-.003.476.251.917.664 1.152l9.889 5.709-3.423 1.976a.12.12 0 0 1-.116.01l-8.189-4.73a7.63 7.63 0 0 1-2.79-10.41zm28.126 6.545-9.888-5.71 3.423-1.976a.12.12 0 0 1 .116-.01l8.189 4.727a7.625 7.625 0 0 1-1.177 13.757V21.7a1.32 1.32 0 0 0-.661-1.151zm3.407-5.128-.24-.144-8.1-4.678a1.32 1.32 0 0 0-1.331 0l-9.889 5.71v-3.953a.13.13 0 0 1 .049-.106l8.187-4.723a7.622 7.622 0 0 1 11.322 7.894zm-21.42 7.046-3.425-1.977a.12.12 0 0 1-.066-.094V10.94a7.624 7.624 0 0 1 12.502-5.855c-.062.033-.17.092-.24.136l-8.1 4.678a1.32 1.32 0 0 0-.666 1.151l-.006 11.414zm1.86-4.01 4.404-2.543 4.404 2.542v5.086l-4.404 2.543-4.405-2.543z"/></g><defs><clipPath id="a"><path fill="#fff" d="M0 .661h150V41.34H0z"/></clipPath></defs></svg>
